tools/download-figma-icons/icons/outlined-medium/person.svg

<svg width="24" height="24" viewBox="0 0 24 24" fill="none" xmlns="http://www.w3.org/2000/svg">
<path d="M12 12.0038C14.685 12.0038 16.875 9.81291 16.875 7.12688C16.875 4.44084 14.685 2.25 12 2.25C9.315 2.25 7.125 4.44084 7.125 7.12688C7.125 9.81291 9.315 12.0038 12 12.0038ZM12 3.75058C13.86 3.75058 15.375 5.26616 15.375 7.12688C15.375 8.98759 13.86 10.5032 12 10.5032C10.14 10.5032 8.625 8.98759 8.625 7.12688C8.625 5.26616 10.14 3.75058 12 3.75058Z" fill="black"/>
<path d="M12 13.8795C7.59749 13.8795 3.20999 14.4197 2.25749 20.8947C2.19749 21.3074 2.48249 21.6825 2.88749 21.7425C2.92499 21.7425 2.96249 21.75 2.99999 21.75C3.36749 21.75 3.68999 21.4799 3.74249 21.1123C4.45499 16.2654 7.08749 15.3726 12 15.3726C16.9125 15.3726 19.545 16.2579 20.2575 21.1123C20.31 21.4874 20.6325 21.75 21 21.75C21.0375 21.75 21.075 21.75 21.1125 21.7425C21.525 21.6825 21.8025 21.2999 21.7425 20.8947C20.79 14.4197 16.41 13.8795 12 13.8795Z" fill="black"/>
</svg>

<svg xmlns="http://www.w3.org/2000/svg" width="24" height="24" fill="none" viewBox="0 0 24 24"><path fill="currentColor" d="M12 12.004a4.885 4.885 0 0 0 4.875-4.877A4.885 4.885 0 0 0 12 2.25a4.885 4.885 0 0 0-4.875 4.877A4.885 4.885 0 0 0 12 12.004m0-8.253a3.38 3.38 0 0 1 3.375 3.376A3.38 3.38 0 0 1 12 10.503a3.38 3.38 0 0 1-3.375-3.376A3.38 3.38 0 0 1 12 3.75m0 10.13c-4.403 0-8.79.54-9.743 7.015a.747.747 0 0 0 .63.848c.038 0 .075.007.113.007a.75.75 0 0 0 .742-.638c.713-4.847 3.345-5.74 8.258-5.74s7.545.886 8.258 5.74a.744.744 0 0 0 .742.638q.056.002.113-.008a.745.745 0 0 0 .63-.847C20.79 14.42 16.41 13.88 12 13.88"/></svg>
